lib/preview/nrk-logo-preview-nrk-nyheter-on-dark.svg

<svg width="103" height="21" viewBox="0 0 103 21" fill="none" xmlns="http://www.w3.org/2000/svg">
<path d="M0 16.0029V4.00396H3.93719V16.0029H0ZM9.29381 5.91365L11.5581 16.0029H7.24917L4.54549 4.00396H6.96218C7.51635 3.99677 8.05406 4.19212 8.4745 4.55326C8.89562 4.89925 9.18495 5.37957 9.29381 5.91365ZM12.1495 16.0029V4.00396H16.0867V16.0029H12.1495ZM19.0605 8.56697C18.6362 8.57111 18.2188 8.4601 17.8525 8.24583C17.4912 8.03699 17.1911 7.73683 16.9823 7.37547C16.7678 7.0092 16.6568 6.59163 16.661 6.16719C16.6561 5.74533 16.7672 5.33025 16.9823 4.9673C17.1933 4.60986 17.4931 4.31296 17.8525 4.10539C18.2189 3.89137 18.6362 3.78038 19.0605 3.78425C19.4822 3.77971 19.8971 3.8908 20.2602 4.10539C20.616 4.31478 20.9127 4.61143 21.122 4.9673C21.3368 5.33035 21.4479 5.74536 21.4433 6.16719C21.4473 6.5916 21.3363 7.0091 21.122 7.37547C20.9149 7.73524 20.6179 8.03515 20.2602 8.24583C19.8971 8.46085 19.4819 8.57196 19.0599 8.56697H19.0605ZM22.0516 16.0029V4.00396H25.9892V16.0029H22.0516ZM30.9737 10.5611C30.9848 10.5727 31.0693 10.7108 31.2272 10.9751C31.3851 11.2395 31.5906 11.5776 31.8439 11.9892C32.0974 12.4006 32.3649 12.8371 32.6463 13.2989C32.9278 13.7606 33.1926 14.1972 33.4408 14.6086C33.6881 15.0201 33.9697 15.4848 34.2857 16.0029H29.9598C29.6893 15.5635 29.4441 15.1663 29.2245 14.8114C29.0048 14.4565 28.7713 14.0735 28.5238 13.6622C28.2758 13.2514 28.0306 12.8514 27.7882 12.4623C27.5458 12.0733 27.3375 11.7325 27.1633 11.4399C26.9883 11.1472 26.8671 10.95 26.7997 10.8484C26.6325 10.5963 26.5336 10.3052 26.5127 10.0034C26.5294 9.7138 26.6226 9.43385 26.7828 9.19198C26.8504 9.07931 26.9743 8.8793 27.1545 8.592C27.3348 8.3047 27.546 7.96392 27.7882 7.56959C28.0304 7.17526 28.2756 6.77247 28.5238 6.36124C28.772 5.95001 29.0056 5.5641 29.2245 5.20357C29.4445 4.84342 29.6897 4.44345 29.9598 4.00368H34.2857L30.9396 9.46237C30.8361 9.62443 30.7777 9.81121 30.7706 10.0034C30.7818 10.2052 30.8522 10.3992 30.9731 10.5611H30.9737Z" fill="white"/>
<path d="M47.4528 13.1304L40.2332 3.9918H38.8572V16.0037H40.454V6.85999L47.6909 16.0037H49.0669V3.9918H47.4531L47.4528 13.1304Z" fill="#9FDAF5"/>
<path d="M57.5096 7.46005L57.4963 13.7959C57.3726 13.8678 57.2492 13.9369 57.1283 13.9989C56.9219 14.1047 56.7091 14.1979 56.4912 14.2778C56.2849 14.3545 56.0715 14.4112 55.8542 14.4469C55.6324 14.4818 55.408 14.4987 55.1835 14.4977C54.8359 14.5116 54.4906 14.4357 54.1812 14.2775C53.9129 14.1227 53.7061 13.8809 53.5952 13.5926C53.4542 13.2227 53.3877 12.8288 53.3995 12.4334V7.20572L51.6668 7.45946V12.7715C51.6461 13.4128 51.756 14.0517 51.9898 14.6497C52.1775 15.1159 52.5231 15.5019 52.9667 15.7409C53.4706 15.9873 54.0276 16.1063 54.5887 16.0874C55.0572 16.0906 55.5227 16.0135 55.9649 15.8593C56.4011 15.7039 56.8129 15.4874 57.1877 15.2162C57.2911 15.142 57.3932 15.0633 57.4952 14.9816L57.4935 15.7147C57.4935 16.5606 57.2953 17.2035 56.8989 17.6434C56.5025 18.0832 55.8287 18.3032 54.8775 18.3032C54.6168 18.3032 54.3506 18.2918 54.079 18.2691C53.8078 18.2467 53.5383 18.2072 53.2721 18.1509C53.006 18.0945 52.7369 18.024 52.4649 17.9394C52.1929 17.8548 51.9211 17.7562 51.6495 17.6434L51.8366 19.1491C52.0631 19.2389 52.3009 19.3207 52.5498 19.3944C52.7988 19.4681 53.0536 19.5301 53.3143 19.5805C53.5747 19.6312 53.8466 19.6707 54.1297 19.6989C54.4128 19.7271 54.7017 19.7411 54.9963 19.7409C55.6108 19.7513 56.2226 19.6569 56.8052 19.4621C57.2983 19.2957 57.752 19.0307 58.1387 18.6835C58.4998 18.3527 58.7815 17.9452 58.9629 17.4911C59.155 17.0007 59.2501 16.4779 59.2432 15.9515L59.2259 7.20458L57.5096 7.46005Z" fill="#9FDAF5"/>
<path d="M68.415 7.54436C67.9159 7.29186 67.3606 7.1697 66.8012 7.18935C66.3026 7.18926 65.8069 7.26624 65.332 7.41749C64.8494 7.57029 64.3894 7.78659 63.9643 8.06066C63.8363 8.14272 63.7126 8.22983 63.5906 8.3226V3.23053L61.8578 3.48431V16.0037H63.5906V9.50266C63.7248 9.42935 63.8624 9.35942 64.0065 9.29569C64.2469 9.18999 64.4938 9.09956 64.7457 9.02498C64.9882 8.95321 65.235 8.89671 65.4846 8.8558C65.7176 8.81717 65.9534 8.79738 66.1896 8.7966C66.4612 8.79086 66.7317 8.83383 66.988 8.92347C67.2042 9.00126 67.3971 9.13219 67.5489 9.30412C67.7047 9.49074 67.815 9.71081 67.8711 9.94702C67.944 10.2459 67.9784 10.5528 67.9736 10.8603V16.0034H69.706V10.505C69.7287 9.86364 69.6187 9.22443 69.383 8.62712C69.1912 8.16841 68.8503 7.78712 68.415 7.54436Z" fill="#9FDAF5"/>
<path d="M78.8625 8.4667C78.5363 8.04575 78.106 7.7163 77.6136 7.51054C77.0667 7.28843 76.4802 7.17916 75.8897 7.18937C75.2946 7.17926 74.7042 7.29459 74.157 7.52775C73.6593 7.74471 73.2156 8.06807 72.8574 8.47489C72.4885 8.9025 72.211 9.40052 72.0418 9.93857C71.8482 10.5543 71.7537 11.1967 71.7618 11.8419C71.7377 12.6571 71.9093 13.4662 72.2626 14.2019C72.5855 14.8395 73.107 15.3559 73.749 15.6739C74.5024 16.0273 75.329 16.1983 76.1615 16.1729C76.5619 16.1762 76.962 16.1508 77.3588 16.0968C77.6904 16.0491 78.0173 15.9727 78.3356 15.8684C78.6513 15.7628 78.9581 15.6327 79.2532 15.4793L79.3718 14.1766C79.1567 14.2555 78.9386 14.3345 78.7178 14.4134C78.497 14.4924 78.2677 14.5629 78.0298 14.6249C77.79 14.6875 77.5458 14.7327 77.2994 14.76C77.0512 14.7883 76.8017 14.8026 76.5519 14.8025C76.106 14.8097 75.6609 14.7614 75.2269 14.6587C74.8769 14.5753 74.553 14.4067 74.2844 14.1681C74.0129 13.9107 73.8137 13.587 73.7068 13.2292C73.5958 12.8667 73.5335 12.4913 73.5214 12.1126H79.6606C79.7442 11.4128 79.7126 10.7041 79.5672 10.0144C79.4477 9.45374 79.2073 8.92563 78.8625 8.4667ZM74.5817 8.87244C74.9802 8.63158 75.4405 8.51119 75.9064 8.5259C76.373 8.50267 76.8338 8.63681 77.2144 8.90659C77.5527 9.17547 77.7942 9.54656 77.9024 9.96397C77.9871 10.2726 78.0289 10.5914 78.0264 10.9114H73.5588C73.5903 10.574 73.6627 10.2417 73.7745 9.92167C73.9196 9.49262 74.2035 9.12359 74.5817 8.87244Z" fill="#9FDAF5"/>
<path d="M86.2605 14.6415L85.9717 14.6926C85.879 14.709 85.7854 14.7203 85.6914 14.7264C85.6005 14.7323 85.5156 14.7346 85.4366 14.7346C85.1762 14.7418 84.9177 14.6897 84.6806 14.5823C84.4767 14.4862 84.3076 14.3297 84.1965 14.1342C84.0775 13.9136 84.0189 13.6656 84.0266 13.4152V8.72891H86.4218L86.6087 7.37544H84.0266V4.7021L82.2939 5.31144V7.37544H80.9859L80.7988 8.72891H82.2939V13.7705C82.2862 14.1067 82.338 14.4416 82.4468 14.7599C82.5342 15.0119 82.6697 15.2447 82.846 15.4454C83.0076 15.6241 83.2042 15.768 83.4236 15.8684C83.6482 15.9709 83.885 16.0447 84.1283 16.088C84.3692 16.1324 84.6137 16.155 84.8587 16.1557C85.0399 16.1557 85.2184 16.1501 85.3941 16.139C85.5698 16.1279 85.7312 16.111 85.8783 16.088C86.0252 16.0655 86.1642 16.0401 86.2944 16.0122C86.4247 15.9842 86.5348 15.9586 86.6257 15.9357L86.7276 14.5318C86.6615 14.5573 86.5933 14.5771 86.5238 14.591C86.4442 14.6077 86.3565 14.6249 86.2605 14.6415Z" fill="#9FDAF5"/>
<path d="M94.8306 8.4667C94.5045 8.04579 94.0743 7.71635 93.582 7.51055C93.035 7.28842 92.4485 7.17916 91.8579 7.18937C91.2628 7.17934 90.6723 7.29466 90.1251 7.52776C89.6275 7.74478 89.1838 8.06813 88.8256 8.47489C88.4567 8.90244 88.1793 9.40037 88.0102 9.9383C87.8166 10.554 87.7221 11.1964 87.7302 11.8416C87.7062 12.6568 87.8779 13.4659 88.231 14.2017C88.5539 14.8393 89.0754 15.3556 89.7174 15.6735C90.4709 16.027 91.2975 16.198 92.1299 16.1726C92.5303 16.1759 92.9305 16.1505 93.3272 16.0965C93.659 16.0488 93.9859 15.9724 94.3043 15.8681C94.6198 15.7626 94.9266 15.6325 95.2216 15.479L95.3406 14.1763C95.1252 14.2553 94.9071 14.3342 94.6863 14.4131C94.4654 14.4921 94.2361 14.5626 93.9985 14.6246C93.7586 14.6872 93.5145 14.7324 93.2681 14.7597C93.0199 14.7881 92.7704 14.8023 92.5206 14.8023C92.0745 14.8094 91.6294 14.7611 91.1953 14.6585C90.8453 14.5749 90.5215 14.4064 90.2528 14.1678C89.9814 13.9103 89.7824 13.5866 89.6753 13.2289C89.5643 12.8665 89.502 12.491 89.4901 12.1123H95.629C95.7127 11.4125 95.6812 10.7038 95.5356 10.0142C95.416 9.45355 95.1755 8.92554 94.8306 8.4667ZM90.5498 8.87244C90.9484 8.63153 91.4087 8.51113 91.8748 8.5259C92.3414 8.50269 92.8022 8.63683 93.1828 8.90659C93.5211 9.1755 93.7624 9.54659 93.8705 9.96397C93.9556 10.2726 93.9973 10.5914 93.9946 10.9114H89.5271C89.5586 10.574 89.631 10.2417 89.7426 9.92167C89.8878 9.49267 90.1716 9.12367 90.5498 8.87244Z" fill="#9FDAF5"/>
<path d="M101.302 7.31599C100.985 7.40078 100.681 7.53191 100.402 7.70511C100.112 7.88522 99.8443 8.09811 99.6035 8.33954C99.5636 8.3793 99.5245 8.42413 99.4846 8.46614V7.20574L97.7519 7.45949V16.0032H99.4846V9.61178C99.6135 9.52228 99.7468 9.43929 99.8841 9.36309C100.054 9.2699 100.23 9.18792 100.411 9.11775C100.586 9.0497 100.764 8.99052 100.946 8.94014C101.132 8.88833 101.322 8.85155 101.515 8.83017C101.721 8.80743 101.928 8.80167 102.135 8.81296L102.339 7.22292C101.99 7.19801 101.64 7.22945 101.302 7.31599Z" fill="#9FDAF5"/>
</svg>

<svg xmlns="http://www.w3.org/2000/svg" viewBox="0 0 103 21"><path fill="#fff" d="M0 16.003V4.004h3.937v11.999H0Zm9.294-10.09 2.264 10.09H7.25L4.545 4.004h2.417a2.276 2.276 0 0 1 1.513.55c.42.345.71.826.819 1.36Zm2.855 10.09V4.004h3.938v11.999h-3.938Zm6.912-7.436a2.382 2.382 0 0 1-2.4-2.4 2.301 2.301 0 0 1 .321-1.2 2.41 2.41 0 0 1 3.278-.862c.356.21.653.506.862.862.215.363.326.778.321 1.2a2.35 2.35 0 0 1-.321 1.208 2.4 2.4 0 0 1-.862.87 2.302 2.302 0 0 1-1.2.322Zm2.99 7.436V4.004h3.938v11.999h-3.937Zm8.923-5.442c.01.012.095.15.253.414s.364.603.617 1.014a309.436 309.436 0 0 1 1.597 2.62c.247.411.529.876.845 1.394H29.96c-.27-.44-.516-.837-.736-1.192-.22-.354-.453-.738-.7-1.149-.248-.41-.493-.81-.736-1.2a60.12 60.12 0 0 1-.625-1.022 18.04 18.04 0 0 0-.363-.592 1.747 1.747 0 0 1-.287-.845c.016-.29.11-.57.27-.811.067-.113.191-.313.371-.6s.392-.628.634-1.022c.242-.395.488-.798.736-1.209l.7-1.157.736-1.2h4.326L30.94 9.462a1.08 1.08 0 0 0-.17.541c.012.202.082.396.203.558Z"/><path fill="#9FDAF5" d="m47.453 13.13-7.22-9.138h-1.376v12.012h1.597V6.86l7.237 9.144h1.376V3.992h-1.614v9.138ZM57.51 7.46l-.014 6.336a8.048 8.048 0 0 1-.368.203c-.206.106-.419.199-.637.279-.206.076-.42.133-.637.169a4.196 4.196 0 0 1-.67.05 2.024 2.024 0 0 1-1.003-.22 1.35 1.35 0 0 1-.586-.684 3.003 3.003 0 0 1-.195-1.16V7.206l-1.733.253v5.313c-.02.64.089 1.28.323 1.878.188.466.533.852.977 1.09a3.43 3.43 0 0 0 1.622.347c.468.004.934-.073 1.376-.228a4.879 4.879 0 0 0 1.223-.643c.103-.074.205-.153.307-.234l-.002.733c0 .846-.198 1.488-.594 1.928-.397.44-1.07.66-2.022.66-.26 0-.526-.011-.798-.034a6.476 6.476 0 0 1-.807-.118 9.005 9.005 0 0 1-1.622-.508l.187 1.506a8.425 8.425 0 0 0 2.293.55c.283.028.572.042.866.042a5.416 5.416 0 0 0 1.81-.279 3.828 3.828 0 0 0 1.333-.779c.36-.33.642-.738.824-1.192.192-.49.287-1.013.28-1.54l-.017-8.746-1.716.255ZM68.415 7.544a3.317 3.317 0 0 0-1.614-.355c-.498 0-.994.077-1.469.228a5.699 5.699 0 0 0-1.741.906V3.23l-1.733.253v12.52h1.733V9.503a5.541 5.541 0 0 1 1.155-.478c.242-.072.489-.128.739-.17a4.4 4.4 0 0 1 .705-.058c.271-.006.542.037.798.126.216.078.41.21.56.381.157.187.267.407.323.643.073.299.107.606.103.913v5.143h1.732v-5.498a4.666 4.666 0 0 0-.323-1.878 2.221 2.221 0 0 0-.968-1.083ZM78.862 8.467a3.084 3.084 0 0 0-1.248-.956 4.38 4.38 0 0 0-1.724-.322 4.237 4.237 0 0 0-1.733.339c-.498.217-.941.54-1.3.947a4.144 4.144 0 0 0-.815 1.464 6.09 6.09 0 0 0-.28 1.903 5.103 5.103 0 0 0 .5 2.36 3.315 3.315 0 0 0 1.487 1.472 5.3 5.3 0 0 0 2.413.499c.4.003.8-.022 1.197-.076a5.78 5.78 0 0 0 1.894-.618l.119-1.302c-.215.079-.433.158-.654.236-.221.08-.45.15-.688.212-.24.063-.484.108-.73.135a6.574 6.574 0 0 1-.748.043 5.377 5.377 0 0 1-1.325-.144 2.18 2.18 0 0 1-.943-.49 2.137 2.137 0 0 1-.577-.94 4.28 4.28 0 0 1-.186-1.116h6.14c.083-.7.052-1.409-.094-2.099a3.946 3.946 0 0 0-.704-1.547Zm-4.28.405c.398-.24.859-.36 1.324-.346.467-.023.928.11 1.308.38.339.27.58.64.688 1.058.085.309.127.627.124.947H73.56c.031-.337.104-.67.216-.99.145-.428.428-.797.807-1.049ZM86.26 14.642l-.288.05a2.561 2.561 0 0 1-.28.034c-.091.006-.176.009-.255.009a1.717 1.717 0 0 1-.756-.153 1.092 1.092 0 0 1-.484-.448 1.422 1.422 0 0 1-.17-.719V8.73h2.395l.187-1.354h-2.582V4.702l-1.733.61v2.063h-1.308l-.187 1.354h1.495v5.042c-.008.336.044.67.153.989.087.252.223.485.399.685.162.18.358.323.578.423.224.103.461.177.704.22.241.044.486.067.73.068.182 0 .36-.006.536-.017.176-.011.337-.028.484-.051a7.176 7.176 0 0 0 .748-.152l.102-1.404a1.244 1.244 0 0 1-.204.059c-.08.017-.168.034-.264.05ZM94.83 8.467a3.084 3.084 0 0 0-1.248-.956 4.381 4.381 0 0 0-1.724-.322 4.24 4.24 0 0 0-1.733.339c-.498.217-.941.54-1.3.947a4.141 4.141 0 0 0-.815 1.463 6.09 6.09 0 0 0-.28 1.904 5.107 5.107 0 0 0 .501 2.36 3.314 3.314 0 0 0 1.486 1.472 5.3 5.3 0 0 0 2.413.499c.4.003.8-.022 1.197-.076a5.781 5.781 0 0 0 1.895-.618l.119-1.303c-.216.08-.434.158-.655.237-.22.08-.45.15-.688.212a5.13 5.13 0 0 1-.73.135 6.574 6.574 0 0 1-.747.042 5.389 5.389 0 0 1-1.326-.143 2.183 2.183 0 0 1-.942-.491 2.14 2.14 0 0 1-.578-.94 4.27 4.27 0 0 1-.185-1.116h6.139c.084-.7.052-1.408-.093-2.098a3.945 3.945 0 0 0-.705-1.547Zm-4.28.405c.398-.24.859-.36 1.325-.346.466-.023.927.11 1.308.38.338.27.58.64.688 1.058.085.309.126.627.124.947h-4.468c.032-.337.104-.67.216-.99.145-.428.429-.797.807-1.049ZM101.302 7.316a3.348 3.348 0 0 0-.9.39c-.29.18-.558.392-.799.634-.04.04-.078.084-.118.126v-1.26l-1.733.253v8.544h1.733V9.612a4.411 4.411 0 0 1 .926-.494c.175-.068.353-.127.535-.178a3.593 3.593 0 0 1 1.189-.127l.204-1.59a3.248 3.248 0 0 0-1.037.093Z"/></svg>
